X: 24
T:My Love is but a Lassie'O
T:(Chase the Rabtit, Chase the Squirrel)
M:2/4
L:1/16
R:1st Change
Z:http://ca.geocities.com/cfalt@rogers.com/Fiddle/The_List.abc
K:D
(3(ABc)|"D"d2A2 (FGA2)|(dA)AB A2(3(ABc|d2)A2 F2A2|"A7"(FE)EF E2(3(ABc|!
"D"d2)A2 (FGA2)|"Em"(B^AB2) e3d|"A7"c2A2 (Bcde)|"D"fd"A7"ec "D"d2:|!
|:(fg)|"D"(abaf) "A7"(gage)|"D"f2d2 d2(fg)|(abaf) "Em"(gfga)|\
"A7"b2e2 e2(fg)|!
"D"(abaf) "A7"(gage)|"D"f2d2 "G"(gfed)|"A7"c2A2 (Bcde)|\
"D"fd"A7"ec "D"d2:|]
